picto/electric-car-charging-station-right.svg

<svg class="color-immutable" width="24" height="24" viewBox="0 0 24 24" fill="none" xmlns="http://www.w3.org/2000/svg"><path d="M0 22.5V1.5C0 0.675 0.675 0 1.5 0H22.5C23.325 0 24 0.675 24 1.5V22.5C24 23.325 23.325 24 22.5 24H1.5C0.675 24 0 23.325 0 22.5Z" fill="#2D327D"/><path d="M5.58 13.736L3.33 15.986C3.119 16.197 3 16.483 3 16.782V19.426C3 19.632 3.168 19.8 3.375 19.8H3.75V19.369C3.75 18.127 4.758 17.119 6 17.119C7.242 17.119 8.25 18.127 8.25 19.369V19.8H15.713V19.369C15.713 18.127 16.721 17.119 17.963 17.119C19.205 17.119 20.213 18.127 20.213 19.369V19.8H20.625C20.832 19.8 21 19.632 21 19.425V17.087C21 16.892 20.851 16.729 20.656 16.713L16.269 16.349L13.655 13.735C13.444 13.524 13.158 13.406 12.86 13.406H6.375C6.077 13.406 5.791 13.525 5.58 13.736ZM10.085 14.494C10.085 14.287 10.253 14.119 10.46 14.119H12.822C12.922 14.119 13.017 14.159 13.087 14.229L14.88 16.023C14.922 16.065 14.946 16.122 14.946 16.182C14.946 16.306 14.845 16.407 14.721 16.407H10.462C10.255 16.407 10.087 16.24 10.087 16.033L10.085 14.494ZM4.513 16.406C4.389 16.406 4.288 16.305 4.288 16.181C4.288 16.121 4.312 16.064 4.354 16.022L6.147 14.228C6.217 14.158 6.313 14.118 6.412 14.118H8.997C9.204 14.118 9.372 14.286 9.372 14.493V16.03C9.372 16.237 9.204 16.405 8.997 16.405H4.513V16.406Z" fill="white"/><path fill-rule="evenodd" clip-rule="evenodd" d="M5.98401 20.336C5.46601 20.336 5.04701 19.916 5.04701 19.399C5.04701 18.881 5.46701 18.462 5.98401 18.462C6.50101 18.462 6.92101 18.882 6.92101 19.399C6.92101 19.916 6.50101 20.336 5.98401 20.336ZM6.00501 17.678C5.06301 17.678 4.29901 18.443 4.29901 19.384C4.29901 20.326 5.06401 21.09 6.00501 21.09C6.94701 21.09 7.71101 20.326 7.71101 19.384C7.71101 18.443 6.94601 17.678 6.00501 17.678Z" fill="white"/><path fill-rule="evenodd" clip-rule="evenodd" d="M17.961 20.336C17.443 20.336 17.023 19.916 17.023 19.399C17.023 18.881 17.443 18.462 17.961 18.462C18.478 18.462 18.898 18.882 18.898 19.399C18.898 19.916 18.478 20.336 17.961 20.336ZM17.961 17.692C17.019 17.692 16.255 18.457 16.255 19.398C16.255 20.34 17.019 21.104 17.961 21.104C18.903 21.104 19.667 20.34 19.667 19.398C19.667 18.457 18.903 17.692 17.961 17.692Z" fill="white"/><path d="M10.65 8.25H7.875C7.048 8.25 6.375 7.577 6.375 6.75C6.375 5.923 7.048 5.25 7.875 5.25H8.626C9.04 5.25 9.376 4.914 9.376 4.5C9.376 4.086 9.04 3.75 8.626 3.75H3V3H8.626C9.453 3 10.126 3.673 10.126 4.5C10.126 5.327 9.453 6 8.626 6H7.875C7.461 6 7.125 6.336 7.125 6.75C7.125 7.164 7.461 7.5 7.875 7.5H10.65V8.25Z" fill="white"/><path d="M12.75 9.375H12C11.379 9.375 10.875 8.871 10.875 8.25V7.5C10.875 6.879 11.379 6.375 12 6.375H12.75C12.957 6.375 13.125 6.543 13.125 6.75V9C13.125 9.207 12.957 9.375 12.75 9.375Z" fill="white"/><path d="M14.625 6.93799H13.35V7.31299H14.625C14.729 7.31299 14.813 7.22899 14.813 7.12499C14.813 7.02099 14.728 6.93799 14.625 6.93799Z" fill="white"/><path d="M14.625 8.43799H13.35V8.81299H14.625C14.729 8.81299 14.813 8.72899 14.813 8.62499C14.813 8.52099 14.729 8.43799 14.625 8.43799Z" fill="white"/></svg>

<svg class="color-immutable" width="24" height="24" viewBox="0 0 24 24" fill="none" xmlns="http://www.w3.org/2000/svg"><g clip-path="url(#a)"><path d="M0 22.5v-21C0 .675.675 0 1.5 0h21c.825 0 1.5.675 1.5 1.5v21c0 .825-.675 1.5-1.5 1.5h-21C.675 24 0 23.325 0 22.5Z" fill="#2D327D"/><path d="m5.58 13.736-2.25 2.25c-.211.211-.33.497-.33.796v2.644c0 .206.168.374.375.374h.375v-.431a2.25 2.25 0 0 1 4.5 0v.431h7.463v-.431a2.25 2.25 0 0 1 4.5 0v.431h.412a.375.375 0 0 0 .375-.375v-2.338a.375.375 0 0 0-.344-.374l-4.387-.364-2.614-2.614a1.124 1.124 0 0 0-.795-.329H6.375c-.298 0-.584.119-.795.33Zm4.505.758c0-.207.168-.375.375-.375h2.362c.1 0 .195.04.265.11l1.793 1.794a.225.225 0 0 1-.159.384h-4.259a.374.374 0 0 1-.375-.374l-.002-1.539Zm-5.572 1.912a.225.225 0 0 1-.159-.384l1.793-1.794c.07-.07.166-.11.265-.11h2.585c.207 0 .375.168.375.375v1.537a.375.375 0 0 1-.375.375H4.513v.001Z" fill="#fff"/><path fill-rule="evenodd" clip-rule="evenodd" d="M5.984 20.336a.937.937 0 1 1 0-1.874.937.937 0 0 1 0 1.874Zm.021-2.658a1.707 1.707 0 1 0 .002 3.414 1.707 1.707 0 0 0-.002-3.414ZM17.961 20.336a.938.938 0 1 1 0-1.876.938.938 0 0 1 0 1.876Zm0-2.644a1.707 1.707 0 1 0 .002 3.414 1.707 1.707 0 0 0-.002-3.414Z" fill="#fff"/><path d="M10.65 8.25H7.875c-.827 0-1.5-.673-1.5-1.5s.673-1.5 1.5-1.5h.751a.75.75 0 0 0 0-1.5H3V3h5.626c.827 0 1.5.673 1.5 1.5S9.453 6 8.626 6h-.751a.75.75 0 0 0 0 1.5h2.775v.75ZM12.75 9.375H12a1.125 1.125 0 0 1-1.125-1.125V7.5c0-.621.504-1.125 1.125-1.125h.75c.207 0 .375.168.375.375V9a.375.375 0 0 1-.375.375ZM14.625 6.938H13.35v.375h1.275a.188.188 0 1 0 0-.375ZM14.625 8.438H13.35v.375h1.275a.188.188 0 1 0 0-.375Z" fill="#fff"/></g><defs><clipPath id="a"><path fill="#fff" d="M0 0h24v24H0z"/></clipPath></defs></svg>
